X:17
T:GRNWALE2- Granuweal
S:Henry Beck flute MS, 1786, Lib. of Congress
Q:1/4=30
L:1/8
M:3/8
K:Gdorian
B/c/|def|d/c/B/A/G/^F/|G2G|G2A/B/|cAf|cAG|F2F|F2e|fff|\
ggg|af/g/a/f/|g2a|fef|d/c/B/A/E/^D/|G2G|G2::((3 d/e/f/)|^GdB|\
gab|G2G|A2 ((3c/d/e/)|fcA|fga|F2F|F2e|fff|ggg|af/g/s/f/|g2a|\
fef|d/c/B/A/G/^F/|G2G|G2:|]

